svgs/light/signal-bars-slash.svg

<svg xmlns="http://www.w3.org/2000/svg" viewBox="0 0 640 512"><!-- Font Awesome Pro 6.0.0-alpha2 by @fontawesome - https://fontawesome.com License - https://fontawesome.com/license (Commercial License) --><path d="M95.999 384H63.999C46.327 384 31.999 398.328 31.999 416V480C31.999 497.672 46.327 512 63.999 512H95.999C113.673 512 127.999 497.672 127.999 480V416C127.999 398.328 113.673 384 95.999 384ZM95.999 480H63.999V416H95.999V480ZM384 160H416V250.234L448 275.496V160C448 142.328 433.674 128 416 128H384C366.328 128 352 142.328 352 160V199.703L384 224.969V160ZM544.001 32H576.001V376.551L608.001 401.816V32C608.001 14.328 593.675 0 576.001 0H544.001C526.329 0 512.001 14.328 512.001 32V326.023L544.001 351.289V32ZM192 288V480C192 497.672 206.328 512 224 512H256C273.674 512 288 497.672 288 480V312.281L218.197 257.172C203.402 259.992 192 272.387 192 288ZM224 288H256V480H224V288ZM416 480H384V388.07L352 362.809V480C352 497.672 366.328 512 384 512H416C433.674 512 448 497.672 448 480V438.602L416 413.336V480ZM633.923 483.438L25.921 3.422C18.984 -2.031 8.921 -0.828 3.437 6.062C-2.032 13 -0.845 23.062 6.077 28.547L614.079 508.562C617.016 510.875 620.516 512 623.985 512C628.72 512 633.407 509.906 636.563 505.922C642.032 498.984 640.845 488.922 633.923 483.438Z"/></svg>

<svg xmlns="http://www.w3.org/2000/svg" viewBox="0 0 640 512"><!--! Font Awesome Pro 6.0.0-alpha3 by @fontawesome - https://fontawesome.com License - https://fontawesome.com/license (Commercial License) --><path d="M96 384H64c-17.67 0-32 14.33-32 32v64c0 17.67 14.33 32 32 32H96c17.67 0 32-14.33 32-32v-64C128 398.3 113.7 384 96 384zM95.1 480H63.1v-64h32V480zM384 160h32v90.23l32 25.26L448 160c0-17.67-14.33-32-32-32h-32c-17.67 0-32 14.33-32 32l.0001 39.7l32 25.27V160zM544 32h32v344.6l32 25.27L608 32c0-17.67-14.33-32-32-32h-32c-17.67 0-32 14.33-32 32l.0003 294l32 25.27V32zM192 288v192c0 17.67 14.33 32 31.1 32h32c17.67 0 32-14.33 32-32L287.1 312.3L218.2 257.2C203.4 259.1 192 272.4 192 288zM223.1 288h32v192H223.1V288zM416 480h-32v-91.93l-32-25.26L352 480c0 17.67 14.33 32 32 32h32c17.67 0 32-14.33 32-32l.0002-41.4l-32-25.27V480zM633.9 483.4L25.92 3.422C18.98-2.031 8.921-.8281 3.437 6.062c-5.469 6.938-4.281 17 2.641 22.48l608 480C617 510.9 620.5 512 623.1 512c4.734 0 9.422-2.094 12.58-6.078C642 498.1 640.8 488.9 633.9 483.4z"/></svg>
